X:1
T: J. Murdoch Henderson
C:Dan R. MacDonald
R:Reel
Q: 232
K:A
M:4/4
L:1/8
|:E|A1/2A1/2A cB AE CE|Ac eg ae cA|B1/2B1/2B dc BF DF|Bc df bf dB|
A1/2A1/2A cB AE CE|Ac eg ae ce|fd af eA cA|BE GB A1/2A1/2A A:|
|:g|aA cA EA cA|CE Ac ec ae|bf dB FB dB|DF Bc df bg|
ae cA EA cA|CE Ac ec ae|fa af eA cA|BE GB A1/2A1/2A A:|
